outputs/icons/hardware/watch_round.svg

<svg xmlns="http://www.w3.org/2000/svg" width="1200" height="1200" fill="none"><g clip-path="url(#a)"><path fill="#000" d="M1000 600c0-127-59.5-240.5-152-313.5l-34-203C806 35.5 764 0 715.5 0H485c-49 0-91 35.5-99 83.5l-33.5 203c-93 73-152.5 186-152.5 313.5s59.5 240.5 152.5 313.5l33.5 203c8 48 50 83.5 99 83.5h230.5c49 0 90.5-35.5 98.5-83.5l34-203c92.5-73 152-186.5 152-313.5m-700 0c0-165.5 134.5-300 300-300s300 134.5 300 300-134.5 300-300 300-300-134.5-300-300"/></g><defs><clipPath id="a"><path fill="#fff" d="M0 0h1200v1200H0z"/></clipPath></defs></svg>

<svg width="1200" height="1200" viewBox="0 0 1200 1200" fill="none" xmlns="http://www.w3.org/2000/svg"><g clip-path="url(#clip0_238_1269)"><path d="M1000 600C1000 473 940.5 359.5 848 286.5L814 83.5C806 35.5 764 0 715.5 0H485C436 0 394 35.5 386 83.5L352.5 286.5C259.5 359.5 200 472.5 200 600C200 727.5 259.5 840.5 352.5 913.5L386 1116.5C394 1164.5 436 1200 485 1200H715.5C764.5 1200 806 1164.5 814 1116.5L848 913.5C940.5 840.5 1000 727 1000 600ZM300 600C300 434.5 434.5 300 600 300C765.5 300 900 434.5 900 600C900 765.5 765.5 900 600 900C434.5 900 300 765.5 300 600Z" fill="#1D1E23"/></g><defs><clipPath id="clip0_238_1269"><path width="24" fill="white" d="M0 0H1200V1200H0V0z"/></clipPath></defs></svg>
